X:955
T:Polska efter Snickar Gustaf
R:Polska
Z:Göran Hed 2009-01-06
O:Årsunda, Gästrikland
S:efter Erik Hartwig
M: 3/4
L: 1/8
L: 1/8
K:C
C2 E>G c>e|e>d B4  |D>G B>d f>d| d>c e2c2|
C2 E>G c>e|e>d B2 d2|f>a d>f B>d|1c2 c4    :|2c2c2a2|
|:g>e (3ceg c'>b| a>g d2c2|B>G B>d f>a|a>g e2c>a|
g>e (3ceg c'>b| a>g d2e2| f2 a>d (3fdB|1c2c2a2:|2c2c4|

(:musicend:)

(:music:)
